images/mysql-logo-greyscale.svg

<svg xmlns="http://www.w3.org/2000/svg" xmlns:xlink="http://www.w3.org/1999/xlink" width="80" zoomAndPan="magnify" viewBox="0 0 60 60" height="80" preserveAspectRatio="xMidYMid meet" version="1.0"><defs><clipPath id="02ababf4b0"><path d="M 0 21.109375 L 25 21.109375 L 25 39.109375 L 0 39.109375 Z M 0 21.109375 " clip-rule="nonzero"/></clipPath><clipPath id="5b009b2332"><path d="M 25 21.109375 L 56 21.109375 L 56 38 L 25 38 Z M 25 21.109375 " clip-rule="nonzero"/></clipPath></defs><g clip-path="url(#02ababf4b0)"><path fill="#737373" d="M 24.425781 24.996094 C 23.480469 30.191406 22.246094 33.964844 20.699219 36.3125 C 19.496094 38.125 18.179688 39.035156 16.742188 39.035156 C 16.359375 39.035156 15.886719 38.917969 15.328125 38.6875 L 15.328125 37.433594 C 15.601562 37.472656 15.921875 37.496094 16.292969 37.496094 C 16.960938 37.496094 17.5 37.308594 17.914062 36.933594 C 18.40625 36.476562 18.652344 35.964844 18.652344 35.394531 C 18.652344 35.007812 18.460938 34.207031 18.078125 33 L 15.542969 24.988281 L 17.816406 24.988281 L 19.640625 30.980469 C 20.050781 32.339844 20.222656 33.296875 20.152344 33.828125 C 21.148438 31.121094 21.851562 28.179688 22.238281 24.988281 L 24.433594 24.988281 M 14.386719 35.347656 L 12.066406 35.347656 C 11.984375 31.386719 11.757812 27.648438 11.390625 24.15625 L 11.371094 24.15625 L 7.847656 35.347656 L 6.082031 35.347656 L 2.574219 24.15625 L 2.554688 24.15625 C 2.292969 27.507812 2.128906 31.246094 2.0625 35.347656 L -0.0546875 35.347656 C 0.0820312 30.355469 0.421875 25.675781 0.96875 21.308594 L 3.84375 21.308594 L 7.183594 31.625 L 7.203125 31.625 L 10.558594 21.308594 L 13.308594 21.308594 C 13.910156 26.425781 14.265625 31.105469 14.375 35.347656 " fill-opacity="1" fill-rule="nonzero"/></g><g clip-path="url(#5b009b2332)"><path fill="#a6a6a6" d="M 55.339844 35.355469 L 48.769531 35.355469 L 48.769531 21.316406 L 50.980469 21.316406 L 50.980469 33.632812 L 55.339844 33.632812 L 55.339844 35.355469 M 38.800781 32.554688 C 38.242188 31.640625 37.960938 30.175781 37.960938 28.140625 C 37.960938 24.601562 39.019531 22.835938 41.128906 22.835938 C 42.234375 22.835938 43.046875 23.257812 43.570312 24.101562 C 44.128906 25.019531 44.410156 26.480469 44.410156 28.46875 C 44.410156 32.039062 43.351562 33.824219 41.242188 33.824219 C 40.136719 33.824219 39.324219 33.398438 38.800781 32.554688 M 47.039062 35.699219 L 44.503906 34.425781 C 44.730469 34.238281 44.945312 34.035156 45.140625 33.800781 C 46.21875 32.511719 46.761719 30.605469 46.761719 28.085938 C 46.761719 23.4375 44.96875 21.121094 41.367188 21.121094 C 39.605469 21.121094 38.230469 21.710938 37.257812 22.890625 C 36.175781 24.179688 35.632812 26.082031 35.632812 28.585938 C 35.632812 31.058594 36.109375 32.859375 37.066406 34.019531 C 37.941406 35.058594 39.261719 35.578125 41.023438 35.578125 C 41.683594 35.578125 42.285156 35.496094 42.832031 35.332031 L 46.140625 37.289062 L 47.042969 35.707031 M 34.679688 31.480469 C 34.679688 32.671875 34.246094 33.65625 33.386719 34.40625 C 32.527344 35.171875 31.378906 35.550781 29.925781 35.550781 C 28.570312 35.550781 27.265625 35.109375 25.980469 34.238281 L 26.574219 33.03125 C 27.667969 33.585938 28.664062 33.863281 29.542969 33.863281 C 30.378906 33.863281 31.03125 33.675781 31.507812 33.304688 C 31.976562 32.929688 32.261719 32.40625 32.261719 31.742188 C 32.261719 30.910156 31.6875 30.199219 30.636719 29.597656 C 29.667969 29.058594 27.730469 27.925781 27.730469 27.925781 C 26.679688 27.148438 26.152344 26.3125 26.152344 24.933594 C 26.152344 23.796875 26.546875 22.886719 27.332031 22.179688 C 28.117188 21.480469 29.125 21.128906 30.378906 21.128906 C 31.660156 21.128906 32.835938 21.476562 33.886719 22.167969 L 33.351562 23.375 C 32.453125 22.988281 31.558594 22.792969 30.691406 22.792969 C 29.984375 22.792969 29.4375 22.964844 29.054688 23.3125 C 28.671875 23.65625 28.433594 24.101562 28.433594 24.644531 C 28.433594 25.476562 29.019531 26.195312 30.105469 26.804688 C 31.085938 27.34375 33.070312 28.496094 33.070312 28.496094 C 34.152344 29.269531 34.695312 30.105469 34.695312 31.46875 " fill-opacity="1" fill-rule="nonzero"/></g><path fill="#a6a6a6" d="M 56.578125 35.355469 L 56.945312 35.355469 L 56.945312 33.925781 L 57.421875 33.925781 L 57.421875 33.636719 L 56.078125 33.636719 L 56.078125 33.925781 L 56.578125 33.925781 Z M 59.375 35.355469 L 59.722656 35.355469 L 59.722656 33.632812 L 59.203125 33.632812 L 58.777344 34.808594 L 58.320312 33.632812 L 57.816406 33.632812 L 57.816406 35.355469 L 58.144531 35.355469 L 58.144531 34.046875 L 58.164062 34.046875 L 58.644531 35.355469 L 58.894531 35.355469 L 59.378906 34.046875 L 59.378906 35.355469 " fill-opacity="1" fill-rule="nonzero"/></svg>

<svg xmlns="http://www.w3.org/2000/svg" width="80" zoomAndPan="magnify" viewBox="0 0 60 60" height="80" preserveAspectRatio="xMidYMid meet" xmlns:v="https://vecta.io/nano"><defs><clipPath id="A"><path d="M0 21.109h25v18H0zm0 0" clip-rule="nonzero"/></clipPath><clipPath id="B"><path d="M25 21.109h31V38H25zm0 0" clip-rule="nonzero"/></clipPath></defs><g clip-path="url(#A)"><path fill="#737373" d="M24.426 24.996c-.945 5.195-2.18 8.969-3.727 11.316-1.203 1.813-2.52 2.723-3.957 2.723-.383 0-.855-.117-1.414-.348v-1.254a6.85 6.85 0 0 0 .965.063c.668 0 1.207-.187 1.621-.562.492-.457.738-.969.738-1.539 0-.387-.191-1.187-.574-2.395l-2.535-8.012h2.273l1.824 5.992c.41 1.359.582 2.316.512 2.848.996-2.707 1.699-5.648 2.086-8.84h2.195M14.387 35.348h-2.32c-.082-3.961-.309-7.699-.676-11.191h-.02L7.848 35.348H6.082L2.574 24.156h-.02c-.262 3.352-.426 7.09-.492 11.191H-.055c.137-4.992.477-9.672 1.023-14.039h2.875l3.34 10.316h.02l3.355-10.316h2.75c.602 5.117.957 9.797 1.066 14.039"/></g><g clip-path="url(#B)"><path fill="#a6a6a6" d="M55.34 35.355h-6.57V21.316h2.211v12.316h4.359v1.723m-16.539-2.801c-.559-.914-.84-2.379-.84-4.414 0-3.539 1.059-5.305 3.168-5.305 1.105 0 1.918.422 2.441 1.266.559.918.84 2.379.84 4.367 0 3.57-1.059 5.355-3.168 5.355-1.105 0-1.918-.426-2.441-1.27m8.238 3.145l-2.535-1.273c.227-.187.441-.391.637-.625 1.078-1.289 1.621-3.195 1.621-5.715 0-4.648-1.793-6.965-5.395-6.965-1.762 0-3.137.59-4.109 1.77-1.082 1.289-1.625 3.191-1.625 5.695 0 2.473.477 4.273 1.434 5.434.875 1.039 2.195 1.559 3.957 1.559a6.27 6.27 0 0 0 1.809-.246l3.309 1.957.902-1.582M34.68 31.48c0 1.191-.434 2.176-1.293 2.926-.859.766-2.008 1.145-3.461 1.145-1.355 0-2.66-.441-3.945-1.312l.594-1.207c1.094.555 2.09.832 2.969.832.836 0 1.488-.187 1.965-.559a1.93 1.93 0 0 0 .754-1.562c0-.832-.574-1.543-1.625-2.145l-2.906-1.672c-1.051-.777-1.578-1.613-1.578-2.992 0-1.137.395-2.047 1.18-2.754.785-.699 1.793-1.051 3.047-1.051a6.26 6.26 0 0 1 3.508 1.039l-.535 1.207c-.898-.387-1.793-.582-2.66-.582-.707 0-1.254.172-1.637.52s-.621.789-.621 1.332c0 .832.586 1.551 1.672 2.16l2.965 1.691c1.082.773 1.625 1.609 1.625 2.973"/></g><path fill="#a6a6a6" d="M56.578 35.355h.367v-1.43h.477v-.289h-1.344v.289h.5zm2.797 0h.348v-1.723h-.52l-.426 1.176-.457-1.176h-.504v1.723h.328v-1.309h.02l.48 1.309h.25l.484-1.309v1.309"/></svg>
